X:2134
T:Galway Hornpipe
O:england
M:C
L:1/8
C:Trad.
S:Maritime Fiddler  June 1996
R:Hornpipe
K:D
z2z2z2FE|:"D"DDFA dAFD|"C"=CDEF G2FE|"D"DDFA dcde|"E"edcB "A"AGFE|
"D"DDFA dAFD|"C"=CDEF G2FG|"D"AdcB "A"AGFE|"D"D2F2D2FE:||:
"D(Bm)"fefg "(F#m)"fedc|"G(Bm)"BABc B2cf|"E"efefedcB|"A"ABce a2Bc|"D"dcd
e fdAF|"G"GFGA BdcB|"A"AdcB AGFE|1"D"D2F2D2de:|2D2F2D4
